X:1
T:The longer that I live - Mundy
T:#
%%score { 1 | 2 } 3 4
L:1/8
Q:1/4=108
M:4/2
K:F
V:1 treble nm="Soprano I" snm="S"
V:2 treble 
V:3 treble nm="Alto" snm="A"
V:4 treble-8 nm="Tenor" snm="T"
V:1
"^The longer that I live""^John Mundy\n(c. 1555-1630)" A8 c6 c2 | d4 d4 d8 | d4 e4 ^c8 | z16 | %4
w: The long- er|that I live,|that I live,||
[M:4/2] c4 f6 d2 f2 e2 | c4 (B4 A4) B4- | B2 A2 G4 ^F2 G4 F2 | E4 D4 E4 G4 | c8 F4 B4 | %9
w: The more of- fence doth|flow, the * more|* of- fence, the more of-|fence doth flow, the|more of- fence|
 A8 ^F4 A4- | A2 =B4 A2 B2 (c2 d4) | (^c2 d2) c4 d6 g2- | g2 f2 e2 d2 ^c8 | a6 g4 f2 e4 | %14
w: doth flow; The|* more of- fence I *|* * give, the more|* of- fence I give,|The more ac- count,|
 d6 c4 (B2 A4) | c6 B2 A8 | A8 ^F8 | z4 f4 e2 d2 d4- | d4 ^c4 d4 a4 | g2 f2 e2 d2 e4 e4 | %20
w: the more ac\- *|count I owe,|I owe.|The more ac- count|* I make, the|more ac- count I make, The|
 f4 d4 e8 | ^c4 f4 d4 B2 =c2- | c2 (B2 G4) A8 | z4 g4 f4 e4 | d4 f4 e4 d4 | c8 f8 | z4 z4 z4 g4- | %27
w: har- der it|will be, har- der it|* will * be,|Where- fore to|live my heart doth|* shake,|Death|
 g4 f2 e2 d2 (c2 =B4) | c4 f4 e4 a4- | a4 g2 f2 e8 | A4 d8 ^c4 | d16 |] %32
w: * is a gain to *|me, to me, death|* is a gain,|a gain to|me.|
V:2
 z16 | A8 B6 B2 | A4 A4 A4 E4 | A6 G2 F4 G4 |[M:4/2] A8 B4 A4 | e4 g6 ^f2 g2 e2 | d6 ^c2 d2 B2 A4 | %7
w: |The long- er|that I live, The|more of- fence doth|flow, doth flow,|the more of- fence doth|flow, the more of- fence|
 (G4 d4) g8 | f4 e6 d2 d4- | d4 ^c4 d8 | z4 d6 g4 f2 | e2 d2 e4 A4 (d4 | e2) d2 c2 f2 e8 | %13
w: doth * flow,|the more of- fence|* doth flow;|The more of-|fence I give, the more|* of- fence I give,|
 c4 d4 e2 d4 ^c2 | d4 z2 a4 g4 f2 | e4 f2 e4 d2 ^c2 d2 | (e2 d4) ^c2 d8- | d4 a4 g2 f2 e2 d2 | %18
w: The more ac- count I|owe, the more ac-|count I owe, the more ac-|count * I owe.|* the more ac- count I|
 e4 e4 f6 e2 | d4 d4 ^c4 e4 | d2 c2 =B2 (A2 B8) | e4 a4 g2 f2 f4- | f4 e4 f4 f4 | e4 d4 c6 A2 | %24
w: make, the more ac-|count I make, The|har- der it will *|be, the har- der it|* will be, Where-|fore to live my|
 B2 G2 A4 z4 g4 | f4 e4 d6 e2 | f4 (e2 d2 c4) d4 | z4 a8 g2 f2 | e4 (d6 ^c=B c4) | d8 c8- | %30
w: heart doth shake, where-|fore to live my|heart doth * * shake,|Death is a|gain to * * *|me, death|
 c4 =B2 A2 G4 E4 | ^F16 |] %32
w: * is a gain to|me.|
V:3
 z4 z4 A8 | F12 F4 | F4 E4 E8 | C4 D6 C2 D2 E2 |[M:4/2] F6 E2 D2 B,2 D2 ^C2 | A,4 (B,2 C2) D6 B,2 | %6
w: The|long- er|that I live,|The more of- fence doth|flow, the more of- fence doth|flow, the * more of-|
 (G,2 A,2 B,2) G,2 A,4 D4 | =B,2 C4 B,2 C4 E4 | A8 D4 G4 | E8 D4 D4- | D2 G4 ^F2 G2 (E2 D4) | %11
w: fence * * doth flow, more|of- fence doth flow, the|more of- fence|doth flow; The|* more of- fence I *|
 A8 F4 B4 | c2 A4 A2 A8 | A4 F2 G2 E2 F2 G2 A2 | (F4 G2) E2 F2 (D2 E2) D2 | z2 A4 G4 F2 E2 (D2 | %16
w: give, the more|of- fence I give,|The more ac- count I owe, the|more * ac- count I * owe,|the more ac- count I|
 ^C2 D2 E4) D4 A4 | F4 D4 G4 B4 | A12 (F4 | B4) G4 z4 c4 | =B2 A2 A8 ^G4 | A4 c4 B2 A2 G2 (F2 | %22
w: * * * owe. The|more ac- count I|make, I|* make, the|more ac- count I|make, The har- der it will|
 G8) F4 F4 | G4 B4 A4 (E2 F2) | G4 (C4 G8) | A8 D8 | z4 A8 G2 F2 | E4 C4 F4 D2 G2- | %28
w: * be, Where-|fore to live my *|heart doth *|* shake,|Death is a|gain to me, a gain|
 G2 (E2 F2 G2 A8) | F4 A8 G2 F2 | E4 (F4 E8) | D16 |] %32
w: * to * * *|me, death is a|gain to *|me.|
V:4
 z16 | d8 B6 B2 | d4 ^c4 A8 | A4 B6 A2 B2 G2 |[M:4/2][K:treble-8] F8 z4 z4 | z4 z4 D4 G4- | %6
w: |The long- er|that I live,|The more of- fence doth|flow,|the more|
 G2 F2 G2 E2 D8 | G8 C4 c4 | A8 (B6 G2 | A8) D8 | z4 z4 z4 z4 | z4 A4 d4 G4 | c2 (d2 A2 D2) A8 | %13
w: * of- fence doth flow,|the more of-|fence doth *|* flow;||The more of-|fence I * * give,|
 z16 | d4 B2 c2 A2 B2 c2 d2 | A4 (F2 G2) A8 | A8 D8- | D8 z4 z4 | z4 A4 F4 D4 | G4 B4 A6 c2 | %20
w: |The more ac- count I owe, the|more ac\- * count|I owe.||The more ac-|count I make, the|
 d2 e2 f4 e8 | A4 F4 B6 A2 | B4 c4 F8 | z4 G4 A4 c4 | B4 A4 G4 B4 | A8 z4 d4- | d4 c2 B2 A4 B4 | %27
w: more ac- count I|make, The har- der|it will be,|Where- fore to|live my heart doth|shake, Death|* is a gain to|
 c4 A4 F4 G4 | c4 (d4 A8) | D8 A8- | A4 G2 F2 G4 A4 | D16 |] %32
w: me, death is a|gain to *|me, death|* is a gain to|me.|

